Newaita/actions/22/transform-crop.svg

<svg height="22" viewBox="0 0 22 22" width="22" xmlns="http://www.w3.org/2000/svg"><g fill="#424242"><path d="m6.59375 16.078125 12.21875-12.21875c.089844-.089844.089844-.234375 0-.320313l-.320312-.324218c-.089844-.085938-.234376-.085938-.320313 0l-12.222656 12.222656c-.089844.089844-.089844.230469 0 .320312l.324219.320313c.085937.089844.230468.089844.320312 0zm0 0"/><path d="m6.820312 16.542969v-14.097657c0-.25-.203124-.453124-.453124-.453124h-.910157c-.25 0-.453125.203124-.453125.453124v14.097657c0 .253906.203125.457031.453125.457031h.910157c.25 0 .453124-.203125.453124-.457031zm0 0"/><path d="m5.914062 17h13.640626c.253906 0 .457031-.203125.457031-.457031v-.90625c0-.253907-.203125-.457031-.457031-.457031h-13.640626c-.253906 0-.457031.203124-.457031.457031v.90625c0 .253906.203125.457031.457031.457031zm0 0"/><path d="m15.007812 5.628906v14.097656c0 .253907.203126.457032.457032.457032h.90625c.253906 0 .457031-.203125.457031-.457032v-14.097656c0-.25-.203125-.453125-.457031-.453125h-.90625c-.253906 0-.457032.203125-.457032.453125zm0 0"/><path d="m15.917969 5.175781h-13.644531c-.25 0-.453126.203125-.453126.453125v.910156c0 .25.203126.453126.453126.453126h13.644531c.25 0 .453125-.203126.453125-.453126v-.910156c0-.25-.203125-.453125-.453125-.453125zm0 0"/></g></svg>

<?xml version="1.0" encoding="UTF-8"?>
<svg xmlns="http://www.w3.org/2000/svg" xmlns:xlink="http://www.w3.org/1999/xlink" width="22px" height="22px" viewBox="0 0 22 22" version="1.1">
<g id="surface1">
<path style=" stroke:none;fill-rule:nonzero;fill:rgb(25.882354%,25.882354%,25.882354%);fill-opacity:1;" d="M 6.59375 16.078125 L 18.8125 3.859375 C 18.902344 3.769531 18.902344 3.625 18.8125 3.539062 L 18.492188 3.214844 C 18.402344 3.128906 18.257812 3.128906 18.171875 3.214844 L 5.949219 15.4375 C 5.859375 15.527344 5.859375 15.667969 5.949219 15.757812 L 6.273438 16.078125 C 6.359375 16.167969 6.503906 16.167969 6.59375 16.078125 Z M 6.59375 16.078125 "/>
<path style=" stroke:none;fill-rule:nonzero;fill:rgb(25.882354%,25.882354%,25.882354%);fill-opacity:1;" d="M 6.820312 16.542969 L 6.820312 2.445312 C 6.820312 2.195312 6.617188 1.992188 6.367188 1.992188 L 5.457031 1.992188 C 5.207031 1.992188 5.003906 2.195312 5.003906 2.445312 L 5.003906 16.542969 C 5.003906 16.796875 5.207031 17 5.457031 17 L 6.367188 17 C 6.617188 17 6.820312 16.796875 6.820312 16.542969 Z M 6.820312 16.542969 "/>
<path style=" stroke:none;fill-rule:nonzero;fill:rgb(25.882354%,25.882354%,25.882354%);fill-opacity:1;" d="M 5.914062 17 L 19.554688 17 C 19.808594 17 20.011719 16.796875 20.011719 16.542969 L 20.011719 15.636719 C 20.011719 15.382812 19.808594 15.179688 19.554688 15.179688 L 5.914062 15.179688 C 5.660156 15.179688 5.457031 15.382812 5.457031 15.636719 L 5.457031 16.542969 C 5.457031 16.796875 5.660156 17 5.914062 17 Z M 5.914062 17 "/>
<path style=" stroke:none;fill-rule:nonzero;fill:rgb(25.882354%,25.882354%,25.882354%);fill-opacity:1;" d="M 15.007812 5.628906 L 15.007812 19.726562 C 15.007812 19.980469 15.210938 20.183594 15.464844 20.183594 L 16.371094 20.183594 C 16.625 20.183594 16.828125 19.980469 16.828125 19.726562 L 16.828125 5.628906 C 16.828125 5.378906 16.625 5.175781 16.371094 5.175781 L 15.464844 5.175781 C 15.210938 5.175781 15.007812 5.378906 15.007812 5.628906 Z M 15.007812 5.628906 "/>
<path style=" stroke:none;fill-rule:nonzero;fill:rgb(25.882354%,25.882354%,25.882354%);fill-opacity:1;" d="M 15.917969 5.175781 L 2.273438 5.175781 C 2.023438 5.175781 1.820312 5.378906 1.820312 5.628906 L 1.820312 6.539062 C 1.820312 6.789062 2.023438 6.992188 2.273438 6.992188 L 15.917969 6.992188 C 16.167969 6.992188 16.371094 6.789062 16.371094 6.539062 L 16.371094 5.628906 C 16.371094 5.378906 16.167969 5.175781 15.917969 5.175781 Z M 15.917969 5.175781 "/>
</g>
</svg>
